X:123
U: ~ = !turn!
%%topmargin 3cm
T:Mary Ann
B:Traditional Irish Fiddle Tunes. Randy Miller and Jack Perron.
Z:Transcribed by Ralph Palmer
C:contributed by Rod Miller
R:Reel
L:1/8
M:C
K:D
A3 B d2 f2 | A3 B de fd | e2 B2 ~B2 AB | d2 B2 Bc dB |
A3 B d2 f2 | A3 B de fd | e2 B2 Pc2 Bc | [1 e2 d2 d4 :| [2 e2 d2 d2 fg |
|: a2 f2 Pf2 ef | a2 f2 Pf2 fe | d2 B2 PB2 AB | d2 B2 PB2 fg |
a2 f2 Pf2 ef | a2 f2 f3 e | d2 B2 Pc2 Bc | [1 e2 d2 d2 fg :| [2 e2 d2 d4 |]
